X: 4026
M: C|
L: 1/8
K: A
uB |\
cAAe A/A/A e2 |
dfec BcdB |\
[1 cAAe A/A/A e2 | dfec (B2A) :|\
[2 caga faea | dbca (B2A) |]


